app/_includes/svgs/client-logos/logo_ueno.min.svg

<svg xmlns="http://www.w3.org/2000/svg" viewBox="0 0 250 100" enable-background="new 0 0 250 100"><g><path d="M44.1 55.3c0 13.3-7.2 19.6-22 19.6s-22.1-6.4-22.1-19.6v-29.2h14.9v26c0 4.8 0 10.9 7.2 10.9 7 0 7-6 7-10.9v-26h14.9l.1 29.2z"/><path d="M46.9 26.1h40.1v12.2h-25.1v5.9h22.8v11.4h-22.8v5.9h25.8v12.2h-40.8v-47.6z"/><path d="M90.7 26.1h15.3l14.1 25.5h.2v-25.5h14.1v47.6h-14.6l-14.9-26h-.2v26h-14.2l.2-47.6z"/><path d="M161.9 25c14.7 0 24.5 10.4 24.5 24.9s-9.9 24.9-24.5 24.9c-14.7 0-24.5-10.4-24.5-24.9s9.8-24.9 24.5-24.9zm0 37.9c3.9 0 9.6-2.5 9.6-13.1s-5.9-13-9.6-13c-3.9 0-9.6 2.5-9.6 13 0 10.6 5.8 13.1 9.6 13.1z"/><ellipse cx="193.6" cy="67.9" rx="7.6" ry="7.4"/></g></svg>

<svg xmlns="http://www.w3.org/2000/svg" viewBox="0 0 250 100" enable-background="new 0 0 250 100"><g><path d="M44.1 55.3c0 13.3-7.2 19.6-22 19.6S0 68.5 0 55.3V26.1h14.9v26c0 4.8 0 10.9 7.2 10.9 7 0 7-6 7-10.9v-26H44l.1 29.2z"/><path d="M46.9 26.1H87v12.2H61.9v5.9h22.8v11.4H61.9v5.9h25.8v12.2H46.9V26.1z"/><path d="M90.7 26.1H106l14.1 25.5h.2V26.1h14.1v47.6h-14.6l-14.9-26h-.2v26H90.5l.2-47.6z"/><path d="M161.9 25c14.7 0 24.5 10.4 24.5 24.9s-9.9 24.9-24.5 24.9c-14.7 0-24.5-10.4-24.5-24.9S147.2 25 161.9 25zm0 37.9c3.9 0 9.6-2.5 9.6-13.1s-5.9-13-9.6-13c-3.9 0-9.6 2.5-9.6 13 0 10.6 5.8 13.1 9.6 13.1z"/><ellipse cx="193.6" cy="67.9" rx="7.6" ry="7.4"/></g></svg>
